src/components/crossDevice/MobileConnected/assets/connection-large.svg

<?xml version="1.0" encoding="UTF-8" standalone="no"?>
<svg width="144px" height="144px" viewBox="0 0 144 144" version="1.1" xmlns="http://www.w3.org/2000/svg" xmlns:xlink="http://www.w3.org/1999/xlink">
    <!-- Generator: Sketch 46.2 (44496) - http://www.bohemiancoding.com/sketch -->
    <title>connection-large</title>
    <desc>Created with Sketch.</desc>
    <defs>
        <rect id="path-1" x="0" y="0" width="96" height="64" rx="8"></rect>
        <rect id="path-2" x="0" y="0" width="48" height="80" rx="8"></rect>
        <circle id="path-3" cx="24" cy="69" r="5"></circle>
    </defs>
    <g id="Symbols" stroke="none" stroke-width="1" fill="none" fill-rule="evenodd">
        <g id="icons/connection/large">
            <g id="connection-large">
                <circle id="circle-BG" fill="#00C8A0" cx="72" cy="72" r="72"></circle>
                <g id="cross-device-large-icon" transform="translate(11.000000, 14.000000)"></g>
                <g id="icons/desktop/large" transform="translate(43.000000, 32.000000)">
                    <g id="desktop-large">
                        <g id="Rectangle-3">
                            <use fill="#FFFFFF" fill-rule="evenodd" xlink:href="#path-1"></use>
                            <rect stroke="#2C3E4F" stroke-width="4" x="2" y="2" width="92" height="60" rx="8"></rect>
                        </g>
                        <rect id="Rectangle" fill="#2C3E4F" x="24" y="72" width="48" height="4" rx="2"></rect>
                        <path d="M25,54 L71,54 L71,54 C71.5522847,54 72,54.4477153 72,55 L72,55 L72,55 C72,55.5522847 71.5522847,56 71,56 L25,56 L25,56 C24.4477153,56 24,55.5522847 24,55 L24,55 L24,55 C24,54.4477153 24.4477153,54 25,54 Z" id="Rectangle-Copy" fill="#2C3E4F"></path>
                        <rect id="Rectangle-2" fill="#2C3E4F" x="46" y="60" width="4" height="16" rx="2"></rect>
                    </g>
                </g>
                <g id="icons/mobile/large" transform="translate(11.000000, 50.000000)">
                    <g id="mobile-small">
                        <g id="Rectangle-5">
                            <use fill="#FFFFFF" fill-rule="evenodd" xlink:href="#path-2"></use>
                            <rect stroke="#2C3E4F" stroke-width="4" x="2" y="2" width="44" height="76" rx="8"></rect>
                        </g>
                        <g id="Oval">
                            <use fill="#FFFFFF" fill-rule="evenodd" xlink:href="#path-3"></use>
                            <circle stroke="#283E4F" stroke-width="2" cx="24" cy="69" r="4"></circle>
                        </g>
                        <rect id="Rectangle-4-Copy-2" fill="#2C3E4F" x="15" y="8" width="18" height="2" rx="1"></rect>
                    </g>
                </g>
                <path d="M48,16 C48,14.9 48.9,14 50.02,14 C51.12,14 52,14.9 52,16 C52,17.1 51.12,18 50.02,18 C48.9,18 48,17.1 48,16 M56,16 C56,14.9 56.9,14 58,14 C59.12,14 60,14.9 60,16 C60,17.1 59.12,18 58,18 C56.9,18 56,17.1 56,16 M64,16 C64,14.9 64.88,14 65.98,14 C67.1,14 68,14.9 68,16 C68,17.1 67.1,18 65.98,18 C64.88,18 64,17.1 64,16 M72,16 C72,14.9 72.9,14 74,14 C75.12,14 76,14.9 76,16 C76,17.1 75.12,18 74,18 C72.9,18 72,17.1 72,16 M80,16 C80,14.9 80.9,14 82.02,14 C83.12,14 84,14.9 84,16 C84,17.1 83.12,18 82.02,18 C80.9,18 80,17.1 80,16 M88,16 C88,14.9 88.9,14 90,14 C91.12,14 92,14.9 92,16 C92,17.1 91.12,18 90,18 C88.9,18 88,17.1 88,16 M40.02,16.1424487 C40,16.1025014 40,16.0425803 40,15.9826593 C40.02,14.9640022 40.82,14.0851607 41.88,14.005266 C42.98,13.9253713 43.92,14.7642655 44,15.8628173 L44,16.0226067 C44,17.0612375 43.2,17.9201053 42.16,18 L42.02,18 C40.96,18 40.08,17.2010532 40.02,16.1424487 M95.398,20.1995725 C95.14,19.8393801 95,19.4191556 95,18.9989312 C95,18.3986105 95.28,17.7982899 95.8,17.3980761 C96.68,16.7377234 97.94,16.9178196 98.6,17.7982899 C98.88,18.1584823 99,18.5787067 99,18.9989312 C99,19.6192625 98.72,20.2195832 98.2,20.5997862 C97.84,20.8799359 97.42,21 97,21 C96.398,21 95.8,20.7198504 95.398,20.1995725 M35.04,21.7595056 C34.38,21.3987639 34,20.6973218 34,19.9958797 C34,19.6752205 34.08,19.33452 34.24,19.033902 C34.78,18.0719243 35.98,17.7111826 36.96,18.2522951 C37.62,18.6130367 38,19.2944376 38,20.0159209 C38,20.3365802 37.92,20.6572394 37.76,20.9578575 L37.74,20.9578575 C37.38,21.6392584 36.7,22 36,22 C35.68,22 35.34,21.9198352 35.04,21.7595056 M97,27 C97,25.9 97.9,25 99,25 C100.1,25 101,25.9 101,27 C101,28.1 100.1,29 99,29 C97.9,29 97,28.1 97,27 M33,28 C33,26.9 33.9,26 35,26 C36.1,26 37,26.9 37,28 C37,29.1 36.1,30 35,30 C33.9,30 33,29.1 33,28 M33,36 C33,34.9 33.9,34 35,34 C36.1,34 37,34.9 37,36 C37,37.1 36.1,38 35,38 C33.9,38 33,37.1 33,36 M33,44 C33,42.9 33.9,42 35,42 C36.1,42 37,42.9 37,44 C37,45.1 36.1,46 35,46 C33.9,46 33,45.1 33,44" id="dotted-line" fill="#2C3E4F"></path>
            </g>
        </g>
    </g>
</svg>

<svg width="144" height="144" viewBox="0 0 144 144" xmlns="http://www.w3.org/2000/svg" xmlns:xlink="http://www.w3.org/1999/xlink"><title>connection-large</title><defs><rect id="a" width="96" height="64" rx="8"/><rect id="b" width="48" height="80" rx="8"/><circle id="c" cx="24" cy="69" r="5"/></defs><g fill="none" fill-rule="evenodd"><circle fill="#00C8A0" cx="72" cy="72" r="72"/><g transform="translate(43 32)"><use fill="#FFF" xlink:href="#a"/><rect stroke="#2C3E4F" stroke-width="4" x="2" y="2" width="92" height="60" rx="8"/><rect fill="#2C3E4F" x="24" y="72" width="48" height="4" rx="2"/><path d="M25 54h46c.552 0 1 .448 1 1s-.448 1-1 1H25c-.552 0-1-.448-1-1s.448-1 1-1z" fill="#2C3E4F"/><rect fill="#2C3E4F" x="46" y="60" width="4" height="16" rx="2"/></g><g transform="translate(11 50)"><use fill="#FFF" xlink:href="#b"/><rect stroke="#2C3E4F" stroke-width="4" x="2" y="2" width="44" height="76" rx="8"/><use fill="#FFF" xlink:href="#c"/><circle stroke="#283E4F" stroke-width="2" cx="24" cy="69" r="4"/><rect fill="#2C3E4F" x="15" y="8" width="18" height="2" rx="1"/></g><path d="M48 16c0-1.1.9-2 2.02-2 1.1 0 1.98.9 1.98 2s-.88 2-1.98 2C48.9 18 48 17.1 48 16m8 0c0-1.1.9-2 2-2 1.12 0 2 .9 2 2s-.88 2-2 2c-1.1 0-2-.9-2-2m8 0c0-1.1.88-2 1.98-2 1.12 0 2.02.9 2.02 2s-.9 2-2.02 2c-1.1 0-1.98-.9-1.98-2m8 0c0-1.1.9-2 2-2 1.12 0 2 .9 2 2s-.88 2-2 2c-1.1 0-2-.9-2-2m8 0c0-1.1.9-2 2.02-2 1.1 0 1.98.9 1.98 2s-.88 2-1.98 2C80.9 18 80 17.1 80 16m8 0c0-1.1.9-2 2-2 1.12 0 2 .9 2 2s-.88 2-2 2c-1.1 0-2-.9-2-2m-47.98.142c-.02-.04-.02-.1-.02-.16.02-1.018.82-1.897 1.88-1.977 1.1-.08 2.04.76 2.12 1.858v.16c0 1.038-.8 1.897-1.84 1.977h-.14c-1.06 0-1.94-.8-2-1.858M95.398 20.2C95.14 19.84 95 19.42 95 19c0-.6.28-1.202.8-1.602.88-.66 2.14-.48 2.8.4.28.36.4.78.4 1.2 0 .62-.28 1.222-.8 1.602-.36.28-.78.4-1.2.4-.602 0-1.2-.28-1.602-.8M35.04 21.76c-.66-.36-1.04-1.063-1.04-1.764 0-.32.08-.66.24-.962.54-.962 1.74-1.323 2.72-.782.66.36 1.04 1.042 1.04 1.764 0 .32-.08.64-.24.942h-.02C37.38 21.638 36.7 22 36 22c-.32 0-.66-.08-.96-.24M97 27c0-1.1.9-2 2-2s2 .9 2 2-.9 2-2 2-2-.9-2-2m-64 1c0-1.1.9-2 2-2s2 .9 2 2-.9 2-2 2-2-.9-2-2m0 8c0-1.1.9-2 2-2s2 .9 2 2-.9 2-2 2-2-.9-2-2m0 8c0-1.1.9-2 2-2s2 .9 2 2-.9 2-2 2-2-.9-2-2" fill="#2C3E4F"/></g></svg>
